icons/chevron-right-down.svg

<?xml version="1.0" standalone="no"?><!-- Generator: Gravit.io --><svg xmlns="http://www.w3.org/2000/svg" xmlns:xlink="http://www.w3.org/1999/xlink" width="96" height="96"><path d=" M 80.21252812695974 19.68418765739124 L 80.28323880507838 75.0506486242979 L 78.72760388646797 78.72760388646796 L 75.05064862429793 80.28323880507837 L 19.684187657391256 80.2125281269597 C 18.62352748561144 80.28323880507835 17.633577991950276 79.85897473636642 16.85576053264507 79.08115727706122 C 16.077943073339867 78.30333981775603 15.65367900462794 77.31339032409485 15.724389682746597 76.25273015231502 C 15.65367900462794 75.19206998053521 16.077943073339867 74.20212048687404 16.85576053264507 73.42430302756884 C 17.633577991950276 72.64648556826364 18.62352748561144 72.22222149955171 19.684187657391263 72.29293217767037 L 72.22222149955174 72.22222149955172 L 72.29293217767042 19.68418765739124 C 72.22222149955176 18.623527485611415 72.64648556826369 17.63357799195025 73.42430302756888 16.855760532645053 C 74.20212048687408 16.077943073339856 75.19206998053525 15.653679004627932 76.25273015231508 15.724389682746576 C 77.3133903240949 15.653679004627918 78.30333981775607 16.077943073339853 79.08115727706127 16.85576053264505 C 79.85897473636646 17.633577991950254 80.2832388050784 18.623527485611426 80.21252812695974 19.68418765739124 Z " fill="#454545" stroke="none"/><mask id="_mask_3AKKHYagmcwafWQT61qZXzgYil5SPemh"><path d=" M 80.21252812695974 19.68418765739124 L 80.28323880507838 75.0506486242979 L 78.72760388646797 78.72760388646796 L 75.05064862429793 80.28323880507837 L 19.684187657391256 80.2125281269597 C 18.62352748561144 80.28323880507835 17.633577991950276 79.85897473636642 16.85576053264507 79.08115727706122 C 16.077943073339867 78.30333981775603 15.65367900462794 77.31339032409485 15.724389682746597 76.25273015231502 C 15.65367900462794 75.19206998053521 16.077943073339867 74.20212048687404 16.85576053264507 73.42430302756884 C 17.633577991950276 72.64648556826364 18.62352748561144 72.22222149955171 19.684187657391263 72.29293217767037 L 72.22222149955174 72.22222149955172 L 72.29293217767042 19.68418765739124 C 72.22222149955176 18.623527485611415 72.64648556826369 17.63357799195025 73.42430302756888 16.855760532645053 C 74.20212048687408 16.077943073339856 75.19206998053525 15.653679004627932 76.25273015231508 15.724389682746576 C 77.3133903240949 15.653679004627918 78.30333981775607 16.077943073339853 79.08115727706127 16.85576053264505 C 79.85897473636646 17.633577991950254 80.2832388050784 18.623527485611426 80.21252812695974 19.68418765739124 Z " fill="white" stroke="none"/></mask><path d=" M 80.21252812695974 19.68418765739124 L 80.28323880507838 75.0506486242979 L 78.72760388646797 78.72760388646796 L 75.05064862429793 80.28323880507837 L 19.684187657391256 80.2125281269597 C 18.62352748561144 80.28323880507835 17.633577991950276 79.85897473636642 16.85576053264507 79.08115727706122 C 16.077943073339867 78.30333981775603 15.65367900462794 77.31339032409485 15.724389682746597 76.25273015231502 C 15.65367900462794 75.19206998053521 16.077943073339867 74.20212048687404 16.85576053264507 73.42430302756884 C 17.633577991950276 72.64648556826364 18.62352748561144 72.22222149955171 19.684187657391263 72.29293217767037 L 72.22222149955174 72.22222149955172 L 72.29293217767042 19.68418765739124 C 72.22222149955176 18.623527485611415 72.64648556826369 17.63357799195025 73.42430302756888 16.855760532645053 C 74.20212048687408 16.077943073339856 75.19206998053525 15.653679004627932 76.25273015231508 15.724389682746576 C 77.3133903240949 15.653679004627918 78.30333981775607 16.077943073339853 79.08115727706127 16.85576053264505 C 79.85897473636646 17.633577991950254 80.2832388050784 18.623527485611426 80.21252812695974 19.68418765739124 Z " fill="none" stroke="none" stroke-width="16" mask="url(#_mask_3AKKHYagmcwafWQT61qZXzgYil5SPemh)"/></svg>

<svg xmlns="http://www.w3.org/2000/svg" width="96" height="96"><path d="M80.213 19.684l.07 55.367-1.555 3.677-3.677 1.555-55.367-.07c-1.06.07-2.05-.354-2.828-1.132-.778-.778-1.202-1.768-1.132-2.828-.07-1.06.354-2.05 1.132-2.829.778-.778 1.768-1.202 2.828-1.131l52.538-.07.07-52.539c-.07-1.06.354-2.05 1.132-2.828.778-.778 1.768-1.202 2.829-1.132 1.06-.07 2.05.354 2.828 1.132.778.778 1.202 1.768 1.132 2.828z" fill="#454545"/></svg>
